X: 1655
T: Laang Barn Dance
B: australian traditional tunes wiki
M:4/4
L:1/8
R: Schottische
Q: 1/4=120
K:D
V:1 
|:"D"a2"A7"g2"D"f4|d>e f>e"G"B4|g2"D"f2"A7"e4|1"A7"(3AAA "G"B>c "D"d4:|2"A7"(3AAA "G"B>c "D"d2-d>B||
|:"D"A2A2 "G"B2B2|"D"(3AAA "A7"d>e "Bm"f4|"A7"g>f e>d c>B A2|1"G"B2"A7"c2"D"d2-(3dAd:|2"G"B2"A7"c2"D"d4||
% abcbook-tune_id 6342d53aa4806b4ba9a400f9


% abcbook-boost 0
% abcbook-tablature 
% abcbook-transpose 
% abcbook-lastupdated 1665324376308
% abcbook-soundfonts 
% abcbook-repeats 1
% NFF Book 2020

